X: 7695
T:Princess Royal
T:Miss MacDermott
R:Morris
O:England
O:Ireland
O:Scotland
M:2/2
L:1/4
C:Turlough O'Carolan
K:G
B>A |\
G F E B/A/ | GF EB | cB Ad/c/ | B/c/B/A/ GB |\
A/B/A/G/ F/G/F/E/ | DC B,B/A/ | \
GF/E/ F^D | E2E:: B | \
e>^d ef | gG Gg | \
g/f/e/d/ c/B/A/G/ | F/G/A/F/ DE/F/ |\
GF/G/ AG/A/ | BB e2 | d2 cd/c/ | B2 AB/A/ |\
A/G/G/F/ E/G/F/E/ | D/E/D/C/ B,B/A/ | \
GF/E/ G/F/E/^D/ | E2 E |]
